static/twitter.svg

<svg viewBox="0 0 20 20" xmlns="http://www.w3.org/2000/svg"><path d="M19 4.74a7.587 7.587 0 01-2.119.58 3.715 3.715 0 001.622-2.04 7.331 7.331 0 01-2.344.89A3.682 3.682 0 0013.464 3a3.698 3.698 0 00-3.596 4.539 10.482 10.482 0 01-7.614-3.86c-.318.54-.5 1.181-.5 1.86 0 1.281.651 2.411 1.643 3.071a3.654 3.654 0 01-1.674-.461v.04a3.71 3.71 0 002.963 3.631 4.083 4.083 0 01-1.668.06 3.701 3.701 0 003.451 2.569 7.467 7.467 0 01-4.587 1.57 6.44 6.44 0 01-.882-.05 10.439 10.439 0 005.662 1.66c6.792 0 10.508-5.629 10.508-10.5 0-.16-.004-.32-.013-.48A7.533 7.533 0 0019 4.74" fill="#FFF"/></svg>

<?xml version="1.0" encoding="utf-8" standalone="yes"?>
<!DOCTYPE svg PUBLIC "-//W3C//DTD SVG 1.1//EN" "http://www.w3.org/Graphics/SVG/1.1/DTD/svg11.dtd">
  <!--
  Copyright (c) 2013-2020 YOOtheme GmbH, getuikit.com
  Released under the MIT license
  https://github.com/uikit/uikit/blob/develop/LICENSE.md
  -->
<svg viewBox="0 0 20 20" xmlns="http://www.w3.org/2000/svg">
  <path d="M19,4.74 C18.339,5.029 17.626,5.229 16.881,5.32 C17.644,4.86 18.227,4.139 18.503,3.28 C17.79,3.7 17.001,4.009 16.159,4.17 C15.485,3.45 14.526,3 13.464,3 C11.423,3 9.771,4.66 9.771,6.7 C9.771,6.99 9.804,7.269 9.868,7.539 C6.795,7.38 4.076,5.919 2.254,3.679 C1.936,4.219 1.754,4.86 1.754,5.539 C1.754,6.82 2.405,7.95 3.397,8.61 C2.79,8.589 2.22,8.429 1.723,8.149 L1.723,8.189 C1.723,9.978 2.997,11.478 4.686,11.82 C4.376,11.899 4.049,11.939 3.713,11.939 C3.475,11.939 3.245,11.919 3.018,11.88 C3.49,13.349 4.852,14.419 6.469,14.449 C5.205,15.429 3.612,16.019 1.882,16.019 C1.583,16.019 1.29,16.009 1,15.969 C2.635,17.019 4.576,17.629 6.662,17.629 C13.454,17.629 17.17,12 17.17,7.129 C17.17,6.969 17.166,6.809 17.157,6.649 C17.879,6.129 18.504,5.478 19,4.74" fill="#FFFFFF"/>
</svg>
